X:2704
L:1/8
M:4/4
K:C
[M:6/8][K:Amin] .abc[Q:3/8=128] E | ABA ABd | ege dBG | G^FG BAG | dBG BAG | A>BA ABd | e^de gba | 
 edc Bcd | ecA A2 :| ^g |{b} a^ga ABA |{b} a^ga A2 ^f | g2 G GAG | BAB GAB | cBc d^cd | e^de gba | 
 edc Bcd | ecA A2 :|

